X:7
T:Stolen Apples
M:9/8
L:1/8
R:slip jig
Z:Ed Wosika
K:GMaj
"G"G,3 G,2A, B,2D| "C"EFE E2F "D7"E2D| "G"B3 F3 G3| d2B "C"e3 "G"B3|
"C"cde c2B A2G| "D7"FGE "C"G2A G2F| E2G c3 E3|1 "D7"A,2C A2G FED:|2 "D7"A,2C A2F G2A||
"Emin"B3 B2c B2A|"C"e3 A2c ~B2A| "Bmin"Bcd B2G A2F|"G"G2D B,2D F3|
"Emin"B3 B2c B2A|"C"e3 d2e f2d|1 "G"g2d e2B d3| "Bmin"B2c B2A F3:|2 "G"g2d e2A B2d| "D7"c2A F2D CA,||
